;Sliced by ideaMaker 4.3.2.6470, 2023-09-29 14:24:48 UTC+0300
;Dimension: 305.000 305.000 300.000 0.400 0.400
;Plate Shape: 0
;Origin Center: 0
;Extruder Offset #1: 0.000 0.000
;Filament Diameter #1: 1.750
;Filament Diameter #2: 1.750
;Filament Compensation #1: 90.00
;Filament Compensation #2: 90.00
;Filament Density #1: 1120.00
;Filament Density #2: 1240.00
;Filament Type #1: ABS
;Filament Type #2: PLA
;Filament Name #1: [Raise3D] ABS 1.75mm
;Filament Name #2: [Raise3D] PLA 1.75mm
;Firmware: Raise3D Pro2
;Bounding Box: 48.250 256.750 106.670 198.330 0.000 11.920
;Model Gap: 0.150
M221 T0 S90.00
M140 S100.00
M104 T0 S250.00
M109 T0 S250.00
T0
M190 S100.00
G21
G90
M82
M107
G28 X0 Y0
G28 Z0
G1 Z15.0 F300
G92 E0
G1 F140 E29
G1 X20 Y0 F140 E30
G92 E0
G1 F6000.0
M117 Printing...
M1001
;TOTAL_NUM: 1
;PRINTING_TIME: 0
;REMAINING_TIME: 9634
M106 S0
;LAYER:-2
;Z:0.500
;HEIGHT:0.500
;PRINTING: NON-OBJECT
;PRINTING_ID: -1
G0 F6000 X55.550 Y108.291
G0 F300 Z0.500
;TYPE:RAFT
;WIDTH:0.800
G1 F480 X56.563 Y107.859 E0.1831
G1 X57.491 Y107.551 E0.3457
G1 X58.627 Y107.280 E0.5400
G1 X59.352 Y107.170 E0.6619
G1 X59.978 Y107.108 E0.7665
G1 X60.550 Y107.080 E0.8618
G1 X92.037 Y107.074 E6.0981
G1 X92.516 Y107.099 E6.1778
G1 X93.186 Y107.208 E6.2907
G1 X93.454 Y107.272 E6.3365
G1 X93.918 Y107.414 E6.4172
G1 X94.408 Y107.621 E6.5057
G1 X94.934 Y107.912 E6.6057
G1 X95.335 Y108.179 E6.6858
G1 X95.985 Y108.746 E6.8292
G1 X96.494 Y109.342 E6.9596
G1 X96.820 Y109.844 E7.0591
G1 X97.013 Y110.200 E7.1265
G1 X97.239 Y110.709 E7.2191
G1 X97.386 Y111.160 E7.2980
G1 X97.446 Y111.387 E7.3370
G1 X97.551 Y111.975 E7.4363
G1 X97.588 Y112.549 E7.5320
G1 X97.599 Y115.488 E8.0208
G1 X97.559 Y116.078 E8.1191
G1 X97.499 Y116.433 E8.1790
G1 X97.310 Y117.092 E8.2930
G1 X97.112 Y117.551 E8.3761
G1 X96.843 Y118.021 E8.4662
G1 X96.537 Y118.434 E8.5517
G1 X96.177 Y118.820 E8.6394
G1 X95.800 Y119.144 E8.7221
G1 X95.353 Y119.448 E8.8120
G1 X94.902 Y119.684 E8.8966
G1 X94.412 Y119.873 E8.9840
G1 X93.907 Y120.005 E9.0708
G1 X93.537 Y120.064 E9.1331
G1 X92.954 Y120.100 E9.2302
G1 X64.985 Y120.100 E13.8815
G1 X64.505 Y120.135 E13.9615
G1 X64.020 Y120.243 E14.0442
G1 X63.557 Y120.421 E14.1267
G1 X63.124 Y120.663 E14.2091
G1 X62.730 Y120.966 E14.2918
G1 X62.385 Y121.325 E14.3746
G1 X62.098 Y121.728 E14.4569
G1 X61.870 Y122.169 E14.5394
G1 X61.710 Y122.638 E14.6219
G1 X61.620 Y123.123 E14.7039
G1 X61.600 Y123.489 E14.7648
G1 X61.600 Y181.515 E24.4146
G1 X61.635 Y181.995 E24.4946
G1 X61.743 Y182.480 E24.5773
G1 X61.921 Y182.943 E24.6598
G1 X62.163 Y183.376 E24.7423
G1 X62.466 Y183.770 E24.8249
G1 X62.825 Y184.115 E24.9077
G1 X63.228 Y184.402 E24.9900
G1 X63.669 Y184.630 E25.0726
G1 X64.138 Y184.790 E25.1550
G1 X64.623 Y184.880 E25.2370
G1 X64.989 Y184.900 E25.2979
G1 X163.946 Y184.900 E41.7546
G1 X164.424 Y184.924 E41.8342
G1 X164.942 Y185.002 E41.9213
G1 X165.422 Y185.047 E42.0014
G1 X166.011 Y185.007 E42.0996
G1 X166.589 Y184.922 E42.1968
G1 X167.056 Y184.900 E42.2745
G1 X240.006 Y184.891 E54.4062
G1 X240.486 Y184.856 E54.4862
G1 X240.971 Y184.748 E54.5688
G1 X241.434 Y184.570 E54.6513
G1 X241.867 Y184.328 E54.7338
G1 X242.261 Y184.024 E54.8166
G1 X242.605 Y183.667 E54.8990
G1 X242.894 Y183.263 E54.9816
G1 X243.121 Y182.822 E55.0641
G1 X243.281 Y182.351 E55.1468
G1 X243.371 Y181.868 E55.2285
G1 X243.391 Y181.502 E55.2895
G1 X243.395 Y123.485 E64.9378
G1 X243.360 Y123.005 E65.0178
G1 X243.252 Y122.521 E65.1003
G1 X243.075 Y122.057 E65.1829
G1 X242.831 Y121.624 E65.2655
G1 X242.529 Y121.231 E65.3479
G1 X242.172 Y120.887 E65.4304
G1 X241.768 Y120.598 E65.5130
G1 X241.326 Y120.370 E65.5957
G1 X240.857 Y120.210 E65.6781
G1 X240.372 Y120.120 E65.7601
G1 X240.006 Y120.100 E65.8211
G1 X111.054 Y120.100 E87.2659
G1 X110.576 Y120.076 E87.3455
G1 X110.042 Y119.995 E87.4353
G1 X109.547 Y119.860 E87.5206
G1 X108.916 Y119.596 E87.6344
G1 X108.472 Y119.338 E87.7198
G1 X108.063 Y119.035 E87.8044
G1 X107.681 Y118.679 E87.8913
G1 X107.336 Y118.274 E87.9797
G1 X107.129 Y117.977 E88.0399
G1 X106.873 Y117.520 E88.1271
G1 X106.669 Y117.034 E88.2147
G1 X106.528 Y116.553 E88.2981
G1 X106.420 Y115.877 E88.4119
G1 X106.400 Y115.440 E88.4847
G1 X106.400 Y112.693 E88.9415
G1 X106.478 Y111.768 E89.0959
G1 X106.573 Y111.306 E89.1743
G1 X106.779 Y110.671 E89.2853
G1 X106.910 Y110.356 E89.3421
G1 X107.183 Y109.824 E89.4415
G1 X107.600 Y109.217 E89.5640
G1 X108.138 Y108.620 E89.6976
G1 X108.531 Y108.278 E89.7843
G1 X108.977 Y107.962 E89.8752
G1 X109.458 Y107.683 E89.9676
G1 X109.835 Y107.513 E90.0364
G1 X110.366 Y107.320 E90.1304
G1 X110.580 Y107.257 E90.1675
G1 X111.119 Y107.143 E90.2591
G1 X111.495 Y107.098 E90.3220
G1 X112.063 Y107.070 E90.4166
G1 X244.440 Y107.079 E112.4310
G1 X245.006 Y107.106 E112.5252
G1 X245.688 Y107.174 E112.6392
G1 X246.210 Y107.253 E112.7270
G1 X246.814 Y107.373 E112.8294
G1 X247.557 Y107.561 E112.9569
G1 X248.630 Y107.933 E113.1457
G1 X249.261 Y108.201 E113.2597
G1 X249.582 Y108.359 E113.3192
G1 X250.479 Y108.851 E113.4894
G1 X251.119 Y109.271 E113.6167
G1 X251.976 Y109.923 E113.7958
G1 X252.487 Y110.379 E113.9097
G1 X252.979 Y110.870 E114.0253
G1 X253.364 Y111.293 E114.1204
G1 X253.809 Y111.836 E114.2371
G1 X254.191 Y112.358 E114.3447
G1 X254.770 Y113.290 E114.5272
G1 X255.024 Y113.765 E114.6167
G1 X255.327 Y114.406 E114.7346
G1 X255.574 Y115.010 E114.8432
G1 X255.920 Y116.090 E115.0318
G1 X256.079 Y116.738 E115.1427
G1 X256.264 Y117.872 E115.3338
G1 X256.310 Y118.373 E115.4175
G1 X256.350 Y119.347 E115.5796
G1 X256.342 Y185.985 E126.6615
G1 X256.305 Y186.711 E126.7824
G1 X256.264 Y187.127 E126.8519
G1 X256.151 Y187.885 E126.9794
G1 X256.012 Y188.560 E127.0940
G1 X255.700 Y189.634 E127.2800
G1 X255.449 Y190.312 E127.4002
G1 X254.996 Y191.291 E127.5796
G1 X254.780 Y191.693 E127.6555
G1 X254.430 Y192.277 E127.7687
G1 X254.182 Y192.651 E127.8434
G1 X253.496 Y193.557 E128.0323
G1 X253.013 Y194.096 E128.1527
G1 X252.562 Y194.547 E128.2588
G1 X252.184 Y194.894 E128.3441
G1 X251.586 Y195.386 E128.4729
G1 X250.987 Y195.821 E128.5960
G1 X250.123 Y196.353 E128.7647
G1 X249.661 Y196.601 E128.8519
G1 X248.665 Y197.055 E129.0340
G1 X248.059 Y197.277 E129.1413
G1 X247.321 Y197.503 E129.2696
G1 X246.595 Y197.676 E129.3938
G1 X245.538 Y197.845 E129.5718
G1 X245.046 Y197.890 E129.6539
G1 X244.073 Y197.930 E129.8159
G1 X168.033 Y197.930 E142.4614
G1 X167.122 Y197.856 E142.6134
G1 X166.028 Y197.611 E142.7998
G1 X165.536 Y197.569 E142.8819
G1 X165.036 Y197.600 E142.9652
G1 X164.214 Y197.789 E143.1055
G1 X163.580 Y197.891 E143.2123
G1 X162.943 Y197.930 E143.3184
G1 X60.496 Y197.921 E160.3554
G1 X60.006 Y197.896 E160.4370
G1 X59.388 Y197.836 E160.5403
G1 X58.801 Y197.748 E160.6390
G1 X57.728 Y197.515 E160.8216
G1 X56.944 Y197.277 E160.9579
G1 X55.905 Y196.870 E161.1434
G1 X55.436 Y196.649 E161.2296
G1 X54.439 Y196.095 E161.4193
G1 X53.749 Y195.634 E161.5573
G1 X53.383 Y195.361 E161.6333
G1 X52.892 Y194.959 E161.7388
G1 X52.468 Y194.576 E161.8338
G1 X51.713 Y193.794 E162.0146
G1 X51.176 Y193.142 E162.1550
G1 X50.532 Y192.216 E162.3426
G1 X50.250 Y191.744 E162.4341
G1 X49.920 Y191.123 E162.5510
G1 X49.469 Y190.093 E162.7380
G1 X49.288 Y189.592 E162.8266
G1 X49.079 Y188.905 E162.9460
G1 X48.955 Y188.396 E163.0331
G1 X48.841 Y187.826 E163.1298
G1 X48.748 Y187.206 E163.2341
G1 X48.685 Y186.568 E163.3407
G1 X48.651 Y185.704 E163.4845
G1 X48.650 Y119.305 E174.5267
G1 X48.681 Y118.459 E174.6674
G1 X48.754 Y117.717 E174.7914
G1 X48.830 Y117.224 E174.8744
G1 X48.952 Y116.612 E174.9782
G1 X49.082 Y116.081 E175.0691
G1 X49.299 Y115.371 E175.1926
G1 X49.459 Y114.928 E175.2709
G1 X49.722 Y114.294 E175.3850
G1 X49.943 Y113.830 E175.4705
G1 X50.472 Y112.873 E175.6523
G1 X50.873 Y112.270 E175.7728
G1 X51.449 Y111.513 E175.9310
G1 X51.959 Y110.935 E176.0591
G1 X52.747 Y110.162 E176.2427
G1 X53.258 Y109.736 E176.3534
G1 X53.834 Y109.306 E176.4729
G1 X54.223 Y109.042 E176.5511
G1 X54.904 Y108.630 E176.6834
G1 X55.550 Y108.291 E176.8048
G0 F6000 X49.692 Y115.342
G1 F480 X49.692 Y189.650 E189.1622
G0 F6000 X52.116 Y193.693
G1 F480 X52.116 Y111.301 E202.8641
G0 F6000 X54.540 Y109.270
G1 F480 X54.540 Y195.728 E217.2421
G0 F6000 X56.964 Y196.898
G1 F480 X56.964 Y108.106 E232.0083
G0 F6000 X59.388 Y107.528
G1 F480 X59.388 Y197.471 E246.9659
G0 F6000 X61.812 Y197.561
G1 F480 X61.812 Y183.487 E249.3064
G0 F6000 X64.236 Y185.175
G1 F480 X64.236 Y197.561 E251.3662
G0 F6000 X66.660 Y197.561
G1 F480 X66.660 Y185.260 E253.4118
G0 F6000 X69.084 Y185.260
G1 F480 X69.084 Y197.561 E255.4575
G0 F6000 X71.508 Y197.561
G1 F480 X71.508 Y185.260 E257.5032
G0 F6000 X73.932 Y185.260
G1 F480 X73.932 Y197.562 E259.5490
G0 F6000 X76.356 Y197.562
G1 F480 X76.356 Y185.260 E261.5948
G0 F6000 X78.780 Y185.260
G1 F480 X78.780 Y197.562 E263.6407
G0 F6000 X81.204 Y197.562
G1 F480 X81.204 Y185.260 E265.6865
G0 F6000 X83.628 Y185.260
G1 F480 X83.628 Y197.563 E267.7325
G0 F6000 X86.052 Y197.563
G1 F480 X86.052 Y185.260 E269.7785
G0 F6000 X88.476 Y185.260
G1 F480 X88.476 Y197.563 E271.8245
G0 F6000 X90.900 Y197.563
G1 F480 X90.900 Y185.260 E273.8705
G0 F6000 X93.324 Y185.260
G1 F480 X93.324 Y197.563 E275.9165
G0 F6000 X95.748 Y197.564
G1 F480 X95.748 Y185.260 E277.9626
G0 F6000 X98.172 Y185.260
G1 F480 X98.172 Y197.564 E280.0088
G0 F6000 X100.596 Y197.564
G1 F480 X100.596 Y185.260 E282.0550
G0 F6000 X103.020 Y185.260
G1 F480 X103.020 Y197.564 E284.1011
G0 F6000 X105.444 Y197.564
G1 F480 X105.444 Y185.260 E286.1473
G0 F6000 X107.868 Y185.260
G1 F480 X107.868 Y197.565 E288.1936
G0 F6000 X110.292 Y197.565
G1 F480 X110.292 Y185.260 E290.2399
G0 F6000 X112.716 Y185.260
G1 F480 X112.716 Y197.565 E292.2863
G0 F6000 X115.140 Y197.565
G1 F480 X115.140 Y185.260 E294.3326
G0 F6000 X117.564 Y185.260
G1 F480 X117.564 Y197.566 E296.3791
G0 F6000 X119.988 Y197.566
G1 F480 X119.988 Y185.260 E298.4256
G0 F6000 X122.412 Y185.260
G1 F480 X122.412 Y197.566 E300.4721
G0 F6000 X124.836 Y197.566
G1 F480 X124.836 Y185.260 E302.5186
G0 F6000 X127.260 Y185.260
G1 F480 X127.260 Y197.566 E304.5651
G0 F6000 X129.684 Y197.567
G1 F480 X129.684 Y185.260 E306.6118
G0 F6000 X132.108 Y185.260
G1 F480 X132.108 Y197.567 E308.6584
G0 F6000 X134.532 Y197.567
G1 F480 X134.532 Y185.260 E310.7051
G0 F6000 X136.956 Y185.260
G1 F480 X136.956 Y197.567 E312.7517
G0 F6000 X139.380 Y197.567
G1 F480 X139.380 Y185.260 E314.7984
G0 F6000 X141.804 Y185.260
G1 F480 X141.804 Y197.568 E316.8452
G0 F6000 X144.228 Y197.568
G1 F480 X144.228 Y185.260 E318.8921
G0 F6000 X146.652 Y185.260
G1 F480 X146.652 Y197.568 E320.9389
G0 F6000 X149.076 Y197.568
G1 F480 X149.076 Y185.260 E322.9857
G0 F6000 X151.500 Y185.260
G1 F480 X151.500 Y197.568 E325.0325
G0 F6000 X153.924 Y197.569
G1 F480 X153.924 Y185.260 E327.0795
G0 F6000 X156.348 Y185.260
G1 F480 X156.348 Y197.569 E329.1265
G0 F6000 X158.772 Y197.569
G1 F480 X158.772 Y185.260 E331.1735
G0 F6000 X161.196 Y185.260
G1 F480 X161.196 Y197.569 E333.2205
G0 F6000 X163.620 Y197.520
G1 F480 X163.620 Y185.260 E335.2594
G0 F6000 X166.044 Y185.365
G1 F480 X166.044 Y197.251 E337.2360
G0 F6000 X168.468 Y197.570
G1 F480 X168.468 Y185.259 E339.2833
G0 F6000 X170.892 Y185.259
G1 F480 X170.892 Y197.570 E341.3307
G0 F6000 X173.316 Y197.570
G1 F480 X173.316 Y185.259 E343.3780
G0 F6000 X175.740 Y185.258
G1 F480 X175.740 Y197.570 E345.4255
G0 F6000 X178.164 Y197.570
G1 F480 X178.164 Y185.258 E347.4730
G0 F6000 X180.588 Y185.258
G1 F480 X180.588 Y197.570 E349.5205
G0 F6000 X183.012 Y197.570
G1 F480 X183.012 Y185.258 E351.5680
G0 F6000 X185.436 Y185.257
G1 F480 X185.436 Y197.570 E353.6156
G0 F6000 X187.860 Y197.570
G1 F480 X187.860 Y185.257 E355.6633
G0 F6000 X190.284 Y185.257
G1 F480 X190.284 Y197.570 E357.7110
G0 F6000 X192.708 Y197.570
G1 F480 X192.708 Y185.256 E359.7588
G0 F6000 X195.132 Y185.256
G1 F480 X195.132 Y197.570 E361.8066
G0 F6000 X197.556 Y197.570
G1 F480 X197.556 Y185.256 E363.8544
G0 F6000 X199.980 Y185.255
G1 F480 X199.980 Y197.570 E365.9024
G0 F6000 X202.404 Y197.570
G1 F480 X202.404 Y185.255 E367.9504
G0 F6000 X204.828 Y185.255
G1 F480 X204.828 Y197.570 E369.9984
G0 F6000 X207.252 Y197.570
G1 F480 X207.252 Y185.255 E372.0464
G0 F6000 X209.676 Y185.254
G1 F480 X209.676 Y197.570 E374.0946
G0 F6000 X212.100 Y197.570
G1 F480 X212.100 Y185.254 E376.1427
G0 F6000 X214.524 Y185.254
G1 F480 X214.524 Y197.570 E378.1909
G0 F6000 X216.948 Y197.570
G1 F480 X216.948 Y185.253 E380.2392
G0 F6000 X219.372 Y185.253
G1 F480 X219.372 Y197.570 E382.2875
G0 F6000 X221.796 Y197.570
G1 F480 X221.796 Y185.253 E384.3359
G0 F6000 X224.220 Y185.252
G1 F480 X224.220 Y197.570 E386.3844
G0 F6000 X226.644 Y197.570
G1 F480 X226.644 Y185.252 E388.4328
G0 F6000 X229.068 Y185.252
G1 F480 X229.068 Y197.570 E390.4813
G0 F6000 X231.492 Y197.570
G1 F480 X231.492 Y185.252 E392.5298
G0 F6000 X233.916 Y185.251
G1 F480 X233.916 Y197.570 E394.5785
G0 F6000 X236.340 Y197.570
G1 F480 X236.340 Y185.251 E396.6271
G0 F6000 X238.764 Y185.251
G1 F480 X238.764 Y197.570 E398.6758
G0 F6000 X241.188 Y197.570
G1 F480 X241.188 Y185.050 E400.7579
G0 F6000 X243.612 Y182.495
G1 F480 X243.612 Y197.570 E403.2649
G0 F6000 X246.036 Y197.401
G1 F480 X246.036 Y107.591 E418.2003
G0 F6000 X243.612 Y107.439
G1 F480 X243.612 Y122.481 E420.7018
G0 F6000 X241.188 Y119.942
G1 F480 X241.188 Y107.439 E422.7811
G0 F6000 X238.764 Y107.439
G1 F480 X238.764 Y119.740 E424.8268
G0 F6000 X236.340 Y119.740
G1 F480 X236.340 Y107.439 E426.8724
G0 F6000 X233.916 Y107.439
G1 F480 X233.916 Y119.740 E428.9181
G0 F6000 X231.492 Y119.740
G1 F480 X231.492 Y107.439 E430.9637
G0 F6000 X229.068 Y107.438
G1 F480 X229.068 Y119.740 E433.0096
G0 F6000 X226.644 Y119.740
G1 F480 X226.644 Y107.438 E435.0554
G0 F6000 X224.220 Y107.438
G1 F480 X224.220 Y119.740 E437.1012
G0 F6000 X221.796 Y119.740
G1 F480 X221.796 Y107.438 E439.1471
G0 F6000 X219.372 Y107.438
G1 F480 X219.372 Y119.740 E441.1929
G0 F6000 X216.948 Y119.740
G1 F480 X216.948 Y107.438 E443.2387
G0 F6000 X214.524 Y107.437
G1 F480 X214.524 Y119.740 E445.2847
G0 F6000 X212.100 Y119.740
G1 F480 X212.100 Y107.437 E447.3307
G0 F6000 X209.676 Y107.437
G1 F480 X209.676 Y119.740 E449.3767
G0 F6000 X207.252 Y119.740
G1 F480 X207.252 Y107.437 E451.4227
G0 F6000 X204.828 Y107.437
G1 F480 X204.828 Y119.740 E453.4687
G0 F6000 X202.404 Y119.740
G1 F480 X202.404 Y107.437 E455.5147
G0 F6000 X199.980 Y107.436
G1 F480 X199.980 Y119.740 E457.5609
G0 F6000 X197.556 Y119.740
G1 F480 X197.556 Y107.436 E459.6070
G0 F6000 X195.132 Y107.436
G1 F480 X195.132 Y119.740 E461.6532
G0 F6000 X192.708 Y119.740
G1 F480 X192.708 Y107.436 E463.6994
G0 F6000 X190.284 Y107.436
G1 F480 X190.284 Y119.740 E465.7455
G0 F6000 X187.860 Y119.740
G1 F480 X187.860 Y107.436 E467.7917
G0 F6000 X185.436 Y107.435
G1 F480 X185.436 Y119.740 E469.8380
G0 F6000 X183.012 Y119.740
G1 F480 X183.012 Y107.435 E471.8844
G0 F6000 X180.588 Y107.435
G1 F480 X180.588 Y119.740 E473.9307
G0 F6000 X178.164 Y119.740
G1 F480 X178.164 Y107.435 E475.9770
G0 F6000 X175.740 Y107.435
G1 F480 X175.740 Y119.740 E478.0233
G0 F6000 X173.316 Y119.740
G1 F480 X173.316 Y107.435 E480.0697
G0 F6000 X170.892 Y107.434
G1 F480 X170.892 Y119.740 E482.1162
G0 F6000 X168.468 Y119.740
G1 F480 X168.468 Y107.434 E484.1627
G0 F6000 X166.044 Y107.434
G1 F480 X166.044 Y119.740 E486.2092
G0 F6000 X163.620 Y119.740
G1 F480 X163.620 Y107.434 E488.2557
G0 F6000 X161.196 Y107.434
G1 F480 X161.196 Y119.740 E490.3022
G0 F6000 X158.772 Y119.740
G1 F480 X158.772 Y107.434 E492.3487
G0 F6000 X156.348 Y107.434
G1 F480 X156.348 Y119.740 E494.3951
G0 F6000 X153.924 Y119.740
G1 F480 X153.924 Y107.433 E496.4418
G0 F6000 X151.500 Y107.433
G1 F480 X151.500 Y119.740 E498.4885
G0 F6000 X149.076 Y119.740
G1 F480 X149.076 Y107.433 E500.5351
G0 F6000 X146.652 Y107.433
G1 F480 X146.652 Y119.740 E502.5818
G0 F6000 X144.228 Y119.740
G1 F480 X144.228 Y107.433 E504.6285
G0 F6000 X141.804 Y107.433
G1 F480 X141.804 Y119.740 E506.6751
G0 F6000 X139.380 Y119.740
G1 F480 X139.380 Y107.432 E508.7220
G0 F6000 X136.956 Y107.432
G1 F480 X136.956 Y119.740 E510.7688
G0 F6000 X134.532 Y119.740
G1 F480 X134.532 Y107.432 E512.8156
G0 F6000 X132.108 Y107.432
G1 F480 X132.108 Y119.740 E514.8624
G0 F6000 X129.684 Y119.740
